X: 87
T:Missa Faisant regretz / Gloria
N: Derived from Jos0801b-Missa_Faisant_regretz-Gloria.krn
C: Josquin des Prez
%%abc-version 2.0
%%abcx-abcm2ps-target-version 5.9.1 (29 Sep 2008)
%%abc-creator hum2abc beta
%%abcx-conversion-date 2019/02/12 16:15:42
%%abc-edited-by Jesse Rodin
%%abc-edited-by Jesse Rodin; Victoria Chang 2011/09/05
%%abcx-initial-encoding-date 2011/09/05/
%%humdrum-veritas 4073543495
%%humdrum-veritas-data 1008955689
%%linebreak <none>
%%barnumbers 0
L: 1/4
M: 3/1
Q: 1/2=120
%%staves [1 2 3 4]
V: 1 clef=treble
V: 2 clef=treble-8
V: 3 clef=treble-8
V: 4 clef=bass
K: F
[V:1] z12 | 
[V:2] B4G4A4 | 
[V:3] z12 | 
[V:4] z12 | 
[V:1] z12 | 
[V:2] G2B3AG2F2D2 | 
[V:3] z12 | 
[V:4] B,4G,4A,4 | 
[V:1] z12 | 
[V:2] _E2D2_E4D2d2 | 
[V:3] B4G4A4 | 
[V:4] G,2B,3A,G,2F,2D,2 | 
[V:1] z4z4F4 | 
[V:2] c2d2G4d4 | 
[V:3] G2B4G2A4 | 
[V:4] _E,2D,2E,4D,4 | 
[V:1] G4A6GA | 
[V:2] z2B2c2d3cBA | 
[V:3] G4z4z4 | 
[V:4] z12 | 
[V:1] B4c2B2A4 | 
[V:2] G2g2ecg3e^f2 | 
[V:3] z12 | 
[V:4] z12 | 
[V:1] G4z2G2c4 | 
[V:2] g4z4z4 | 
[V:3] B4G4A4 | 
[V:4] z2G,2E,C,G,3E,^F,2 | 
[V:1] B3AB2c4=B2 | 
[V:2] z2g4e2d4 | 
[V:3] G4z4z4 | 
[V:4] G,12 | 
[V:1] c8B4 | 
[V:2] c3de2f2g2d2 | 
[V:3] _e4c4d4 | 
[V:4] z2C3B,A,2G,4 | 
[V:1] A2G2c4B2A2 | 
[V:2] _e3ccd_efgdf2- | 
[V:3] c2_e4c2d4 | 
[V:4] z2C3B,A,2G,2F,2 | 
[V:1] c3BAGG4^F2 | 
[V:2] f=ec2d2G2A4 | 
[V:3] c4z4z4 | 
[V:4] A,3G,F,2E,2D,4 | 
[V:1] G4z4z2G2 | 
[V:2] G2B2c2d3Bc2 | 
[V:3] z12 | 
[V:4] z2G,2F,2D,2_E,4 | 
[V:1] F2A3GB3ABG | 
[V:2] d6G2g4 | 
[V:3] f4d4_e4 | 
[V:4] D,4z4z4 | 
[V:1] A4G2E2F2A2- | 
[V:2] f4B2c2A2F2- | 
[V:3] d4z4f4 | 
[V:4] z2D,2_E,2C,2D,4 | 
[V:1] A2F2G4F4 | 
[V:2] FGAFc2G2B2A2 | 
[V:3] d4_e4d2f2- | 
[V:4] D,4C,4z4 | 
[V:1] z4z2G4F2 | 
[V:2] B2A2B2c2A4 | 
[V:3] f2d2_e4d4 | 
[V:4] z2D,4C,2D,4 | 
[V:1] G4A4G4 | 
[V:2] G2g3^f^feg2G2 | 
[V:3] z12 | 
[V:4] _E,4D,4z4 | 
[V:1] z2D2E2F2GABc | 
[V:2] A2B2c2d2G3A | 
[V:3] z12 | 
[V:4] z12 | 
[V:1] d_ed4cBA2G2 | 
[V:2] Bcdef2g2f2g2 | 
[V:3] z12 | 
[V:4] z12 | 
[V:1] A4z2F2G2B2 | 
[V:2] d8z4 | 
[V:3] z2f4d2_e2d2 | 
[V:4] z2D,2D,2D,2C,2D,2- | 
[V:1] A3Bc2d2B2c2 | 
[V:2] z12 | 
[V:3] f6d2_e4 | 
[V:4] D,E,F,G,A,F,B,4A,2 | 
[V:1] F4z4z2d2- | 
[V:2] z2B4B2A2B2- | 
[V:3] d2f4d2_e2d2 | 
[V:4] B,2B,,4B,,2C,2B,,2- | 
[V:1] d2d2c2d2z2d2- | 
[V:2] B2B2A2B2_E2B2- | 
[V:3] f6d2_e2d2 | 
[V:4] B,,C,D,E,F,2B,,2C,2B,,2- | 
[V:1] d2d2c2d2G4 | 
[V:2] B2B2A2B2_E4 | 
[V:3] f6d2_e4 | 
[V:4] B,,C,D,E,F,2B,,2C,4 | 
[V:1] z2d2d2d2d4 | 
[V:2] z2B2B2B2B3G | 
[V:3] d12 | 
[V:4] B,,8z4 | 
[V:1] c2B4A2G4 | 
[V:2] A2G4F2B2c2 | 
[V:3] z12 | 
[V:4] z12 | 
[V:1] F4z2F2G2G2 | 
[V:2] d12 | 
[V:3] z12 | 
[V:4] z2B,2B,2B,2B,3G, | 
[V:1] F2E3DD4^C2 | 
[V:2] z12 | 
[V:3] z12 | 
[V:4] A,B,G,3F,D,E,F,G,E,2 | 
[V:1] D12 | 
[V:2] z2A2B2A2B4 | 
[V:3] z12 | 
[V:4] D,8z4 | 
[V:1] z12 | 
[V:2] A2d2c2B3AG2 | 
[V:3] z12 | 
[V:4] D,4_E,2D,2E,4 | 
[V:1] z12 | 
[V:2] F2B2A2Gc2B2A | 
[V:3] z12 | 
[V:4] D,2G,2F,2_E,3D,C,2 | 
[V:1] z12 | 
[V:2] B2d2c2B_e2d2c | 
[V:3] z12 | 
[V:4] B,,2B,2A,2G,3F,_E,2 | 
[V:1] z2A2B2G2B2A2 | 
[V:2] d4B2c2BGc2 | 
[V:3] z2f2d2e2d2f2 | 
[V:4] D,4z2C,2G,2F,2 | 
[V:1] B2G2B2A2B2G2 | 
[V:2] B2c2BGc2B2c2 | 
[V:3] d2e2d2f2d2e2 | 
[V:4] G,2C,2G,2F,2G,2C,2 | 
[V:1] B2A3GGFA4- | 
[V:2] BGc2B2d4^c2 | 
[V:3] d2f4d2e4 | 
[V:4] G,2F,2B,4A,4 | 
[V:1] A2F2F8 ||  
[V:2] d2A2B4A4 ||  
[V:3] d12 ||  
[V:4] D,12 ||  
[V:1] [M:2/1]A8 | 
[V:2] [M:2/1]ABcdc2d2- | 
[V:3] [M:2/1]z8 | 
[V:4] [M:2/1]z8 | 
[V:1] F8 | 
[V:2] d2cBA2d2 | 
[V:3] z8 | 
[V:4] z8 | 
[V:1] G8 | 
[V:2] GABcB2c2- | 
[V:3] z8 | 
[V:4] z8 | 
[V:1] G4G4 | 
[V:2] c2BAG2c2 | 
[V:3] z8 | 
[V:4] z8 | 
[V:1] F3GAGB2- | 
[V:2] F2f3edc | 
[V:3] z8 | 
[V:4] z8 | 
[V:1] BcA2G4 | 
[V:2] dcf4e2 | 
[V:3] z8 | 
[V:4] z8 | 
[V:1] F4z2F2 | 
[V:2] f4d4 | 
[V:3] z4B4- | 
[V:4] z4B,,4 | 
[V:1] G4G4 | 
[V:2] B4c4 | 
[V:3] B4G4 | 
[V:4] _E,4E,4 | 
[V:1] F4G4- | 
[V:2] d4B2G2 | 
[V:3] A4G2B2- | 
[V:4] D,4_E,4- | 
[V:1] G2^FEF4 | 
[V:2] B3cd4 | 
[V:3] B2G2A4 | 
[V:4] E,4D,4 | 
[V:1] G8 | 
[V:2] z2B4c2- | 
[V:3] G8 | 
[V:4] z4_E,4 | 
[V:1] z8 | 
[V:2] cAA3FB2 | 
[V:3] z8 | 
[V:4] C,4D,4 | 
[V:1] z8 | 
[V:2] A2F3GAB | 
[V:3] z8 | 
[V:4] D,4D,4 | 
[V:1] z8 | 
[V:2] c2GABcd2- | 
[V:3] z8 | 
[V:4] C,D,E,F,G,2F,2- | 
[V:1] z8 | 
[V:2] dcc4=B2 | 
[V:3] z8 | 
[V:4] F,E,C,2D,4 | 
[V:1] z8 | 
[V:2] c4z4 | 
[V:3] z4c4 | 
[V:4] C,4z4 | 
[V:1] F6F2 | 
[V:2] F6F2 | 
[V:3] A4B4 | 
[V:4] D,6D,2 | 
[V:1] F4E4 | 
[V:2] F4G4 | 
[V:3] A4c4 | 
[V:4] D,4C,4 | 
[V:1] F4D4 | 
[V:2] F4G4 | 
[V:3] A4B4 | 
[V:4] D,4G,,4 | 
[V:1] F4E3D | 
[V:2] F3GA2G2- | 
[V:3] A4c4- | 
[V:4] D,4C,3B,, | 
[V:1] E2F2D3E | 
[V:2] G2F2G4 | 
[V:3] c2A2B4 | 
[V:4] C,2D,2G,,4 | 
[V:1] F8 | 
[V:2] F4z2F2 | 
[V:3] A8 | 
[V:4] D,8- | 
[V:1] z2F2FGAB | 
[V:2] FGABA2D2 | 
[V:3] z8 | 
[V:4] D,8 | 
[V:1] A2D2z2F2 | 
[V:2] z2F2G2A2 | 
[V:3] z8 | 
[V:4] z8 | 
[V:1] G2A2B2c2- | 
[V:2] B2c2d2e2 | 
[V:3] z8 | 
[V:4] z8 | 
[V:1] cBAGA4 | 
[V:2] f2g3^f^fe | 
[V:3] z8 | 
[V:4] z8 | 
[V:1] G8 | 
[V:2] g2d2d2B2 | 
[V:3] z2B4G2 | 
[V:4] z2G,2G,2G,2 | 
[V:1] z2D2D2D2 | 
[V:2] c2d2G4 | 
[V:3] A2G2B4- | 
[V:4] F,2B,3A,G,2- | 
[V:1] G,2G3^FFE | 
[V:2] z8 | 
[V:3] B2G2A4 | 
[V:4] G,F,E,2D,4 | 
[V:1] G8 | 
[V:2] z2d2e2d2 | 
[V:3] G8 | 
[V:4] z8 | 
[V:1] z2G2A2G2 | 
[V:2] g3efge2- | 
[V:3] z8 | 
[V:4] z8 | 
[V:1] c3ABcA2- | 
[V:2] edecd4 | 
[V:3] z8 | 
[V:4] z8 | 
[V:1] AGAFG4 | 
[V:2] c2A2B2c2 | 
[V:3] z8 | 
[V:4] z4z2C,2 | 
[V:1] F4z2C2 | 
[V:2] F4z4 | 
[V:3] z8 | 
[V:4] D,2F,3D,E,F, | 
[V:1] D2F3DEF | 
[V:2] z8 | 
[V:3] z8 | 
[V:4] B,,C,D,E,F,2G,F, | 
[V:1] B,4C4 | 
[V:2] z4z2c2 | 
[V:3] z8 | 
[V:4] G,F,B,4A,2 | 
[V:1] B,CDEF2GF | 
[V:2] d2f3def | 
[V:3] z8 | 
[V:4] B,4z4 | 
[V:1] GFB4A2 | 
[V:2] B4c4 | 
[V:3] z4f4 | 
[V:4] z4F,4 | 
[V:1] B4d4 | 
[V:2] B4z2B2 | 
[V:3] d2e2d2f2- | 
[V:4] G,3A,B,4 | 
[V:1] c2d2c2d2 | 
[V:2] A2B2z2f2 | 
[V:3] f2d2e2d2 | 
[V:4] z2B,2A,2B,2 | 
[V:1] c2d4c2 | 
[V:2] f2f2g2e2 | 
[V:3] f2d2e4 | 
[V:4] F,2B,2G,2A,2 | 
[V:1] d2B4AG | 
[V:2] f2d2g4 | 
[V:3] d8- | 
[V:4] F,2G,4F,E, | 
[V:1] A4z2A2 | 
[V:2] f4z2f2 | 
[V:3] d8 | 
[V:4] D,8 | 
[V:1] A3Bc2d2 | 
[V:2] f3de2d2 | 
[V:3] z8 | 
[V:4] z8 | 
[V:1] G3AB2c2 | 
[V:2] e3cd2c2 | 
[V:3] z8 | 
[V:4] z8 | 
[V:1] F4G4 | 
[V:2] d2f4e2 | 
[V:3] z8 | 
[V:4] z8 | 
[V:1] [M:3/1]F8z4 | 
[V:2] [M:3/1]f4d4e4 | 
[V:3] [M:3/1]z12 | 
[V:4] [M:3/1]z12 | 
[V:1] A4B4c4 | 
[V:2] d8c4 | 
[V:3] [M:3/1]f4d4e4 | 
[V:4] z12 | 
[V:1] d4B4c4 | 
[V:2] f4g4f4 | 
[V:3] d4e4c4 | 
[V:4] [M:3/1]B,4G,4A,4 | 
[V:1] B4c4A4 | 
[V:2] g4e4f4 | 
[V:3] d4c4d4 | 
[V:4] G,4A,4F,4 | 
[V:1] B4A4B4 | 
[V:2] e4f4d4 | 
[V:3] B4c4B4 | 
[V:4] G,4F,4G,4 | 
[V:1] G4A4G4 | 
[V:2] _e4d4_e4 | 
[V:3] c4A4B4 | 
[V:4] _E,4F,4E,4 | 
[V:1] A4F4G4 | 
[V:2] c4d4c4 | 
[V:3] A4B4G4 | 
[V:4] F,4D,4_E,4 | 
[V:1] F4G4F4 | 
[V:2] d4c4d4 | 
[V:3] A4G4B4 | 
[V:4] D,4_E,4D,4 | 
[V:1] G4E4F4 | 
[V:2] B4c4A4 | 
[V:3] G4A8 | 
[V:4] _E,4C,4D,4 | 
[V:1] G6F2_E4 | 
[V:2] B4G6A2 | 
[V:3] G12- | 
[V:4] B,,4C,8 | 
[V:1] D4_E8 | 
[V:2] B4G4c4 | 
[V:3] G12- | 
[V:4] B,,4C,8 | 
[V:1] D12 |]  
[V:2] B12 |]  
[V:3] G12 |]  
[V:4] G,,12 |]  



